X:1
T:When All the Singers Get Home
T:When All the Singers Get Home
T:John B. Vaughnan
T:John B. Vaughnan, 1898
T:Public Domain Courtesy of the Cyber Hymnal™
T:Public Domain Courtesy of the Cyber Hymnal™
C:John B. Vaughnan
Z:Public Domain
Z:Courtesy of the Cyber Hymnal™
%%score ( 1 2 ) ( 3 4 )
L:1/8
Q:1/4=85
M:3/4
K:G
V:1 treble 
V:2 treble 
V:3 bass 
V:4 bass 
V:1
 D | [GB]>[GA] G [GB]2 [DB] | [EA][EG] [CE][B,D] !fermata![B,G][DG]/[DG]/ | %3
w: 1.~My|bro- ther, a- wake, and|sing the sweet sto- ry, Soon the|
w: 2.~No|mor- tal hath e’er con-|ceived of its beau- ty, That a-|
w: 3.~Keep|work- ing and sing, press|on- ward, my bro- ther, Till the|
 [GB]>[G^A] [GB][Gd] [Gd][GB] | [FA]3- [FA]2 [GB] | [Gd]>[Gd] [Gd][Ge] [Gd][GB] | %6
w: day of re- un- ion will|come; * Then|oh, what a won- der- ful|
w: waits the re- deemed ones at|home; * Be|sure, my dear bro- ther, you|
w: Sav- ior shall bid you to|come; * How|sweet it will be then to|
 [EA][EG] [CE][B,D] !fermata![B,G][GB] | [Gd]>[Ge] [GB][DFA] [DG][DFA] | [DG]3- [DG]2 || %9
w: sing- ing in glo- ry, When|all re- deemed sing- ers get|home. *|
w: live up to du- ty, For|soon our Re- deem- er will|come. *|
w: meet with each o- ther, When|all re- deemed sing- ers get|home. *|
"^Refrain" [GB] | [Gd]>[Gd] [Gd][Ge] [Gd][GB] | [EA][EG] [CE][B,D] !fermata![B,G][DG] | %12
w: |||
w: Then,|oh, what a won- der- ful,|won- der- ful sing- ing, When|
w: |||
 [GB]>[GA] G[Gd] [Fc][GB] | [FA]3- [FA]2 [GB] | [Gd]>[Gd] [Gd][Ge] [Gd][GB] | %15
w: |||
w: all re- deemed sin- gers get|home; * Re-|un- ion, re- un- ion, thro’|
w: |||
 [EA][EG] [CE][B,D] !fermata![B,G][GB] | [Gd]>[Ge] [GB][DFA] [DG][DFA] | [DG]3- [DG]2 |] %18
w: |||
w: ag- es still ring- ing, When|all re- deemed sing- ers get|home. *|
w: |||
V:2
 D | x2 G x3 | x6 | x6 | x6 | x6 | x6 | x6 | x5 || x | x6 | x6 | x2 G x3 | x6 | x6 | x6 | x6 | %17
 x5 |] %18
V:3
 [G,B,] | [G,D]>[G,C] [G,B,] [G,D]2 [G,B,] | %2
 [C,C][C,C] [C,G,][G,,G,] !fermata![G,,G,][G,B,]/[G,B,]/ | [G,D]>[G,^C] [G,D][G,B,] [G,B,][G,D] | %4
 [D,D]3- [D,D]2 [G,D] | [G,B,]>[G,B,] [G,B,][G,C] [G,B,][G,D] | %6
 [C,C][C,C] [C,G,][G,,G,] !fermata![G,,G,]G, | [G,B,]>[G,C] [G,D][D,C] [D,B,][D,C] | %8
 [G,,G,B,]3- [G,,G,B,]2 || [G,D] | [G,B,]>[G,B,] [G,B,][G,C] [G,B,][G,D] | %11
 [C,C][C,C] [C,G,][G,,G,] !fermata![G,,G,][G,B,] | [G,D]>[G,C] [G,B,][B,D] [A,D][G,C] | %13
 [D,D]3- [D,D]2 [G,D] | [G,B,]>[G,B,] [G,B,][G,C] [G,B,][G,D] | %15
 [C,C][C,C] [C,G,][G,,G,] !fermata![G,,G,][G,D] | [G,B,]>[G,C] [G,D][D,C] [D,B,][D,C] | %17
 [G,,G,B,]3- [G,,G,B,]2 |] %18
V:4
 x | x6 | x6 | x6 | x6 | x6 | x5 G, | x6 | x5 || x | x6 | x6 | x6 | x6 | x6 | x6 | x6 | x5 |] %18

